svg/fluentui-system-icons/ic_fluent_select_object_skew_20_filled.svg

<svg width="20" height="20" viewBox="0 0 20 20" fill="none" xmlns="http://www.w3.org/2000/svg">
<path d="M15 4.5C15 5.32843 15.6716 6 16.5 6C17.3284 6 18 5.32843 18 4.5C18 3.67157 17.3284 3 16.5 3C15.6716 3 15 3.67157 15 4.5ZM11 15.5C11 16.3284 11.6716 17 12.5 17C13.3284 17 14 16.3284 14 15.5C14 14.6716 13.3284 14 12.5 14C11.6716 14 11 14.6716 11 15.5ZM3.5 17C2.67157 17 2 16.3284 2 15.5C2 14.6716 2.67157 14 3.5 14C4.32843 14 5 14.6716 5 15.5C5 16.3284 4.32843 17 3.5 17ZM6 4.5C6 5.32843 6.67157 6 7.5 6C8.32843 6 9 5.32843 9 4.5C9 3.67157 8.32843 3 7.5 3C6.67157 3 6 3.67157 6 4.5ZM14.1147 5.25H9.88575C9.96011 5.01324 10.0002 4.7613 10.0002 4.5C10.0002 4.2387 9.96011 3.98676 9.88575 3.75H14.1147C14.0403 3.98676 14.0002 4.2387 14.0002 4.5C14.0002 4.7613 14.0403 5.01324 14.1147 5.25ZM3.61035 13.0024L5.98028 6.48507C6.37427 6.78719 6.8608 6.97466 7.39 6.99761L5.02008 13.5149C4.62608 13.2128 4.13955 13.0253 3.61035 13.0024ZM10.1147 16.25H5.88575C5.96011 16.0132 6.0002 15.7613 6.0002 15.5C6.0002 15.2387 5.96011 14.9868 5.88575 14.75H10.1147C10.0403 14.9868 10.0002 15.2387 10.0002 15.5C10.0002 15.7613 10.0403 16.0132 10.1147 16.25ZM12.6104 13.0024L14.9803 6.48507C15.3743 6.78719 15.8608 6.97466 16.39 6.99761L14.0201 13.5149C13.6261 13.2128 13.1396 13.0253 12.6104 13.0024Z" fill="#212121"/>
</svg>

<svg xmlns="http://www.w3.org/2000/svg" width="20" height="20"><path d="M15 4.5a1.5 1.5 0 1 0 3 0 1.5 1.5 0 0 0-3 0Zm-4 11a1.5 1.5 0 1 0 3 0 1.5 1.5 0 0 0-3 0ZM3.5 17a1.5 1.5 0 1 1 0-3 1.5 1.5 0 0 1 0 3ZM6 4.5a1.5 1.5 0 1 0 3 0 1.5 1.5 0 0 0-3 0Zm8.115.75h-4.23a2.499 2.499 0 0 0 0-1.5h4.23a2.498 2.498 0 0 0 0 1.5ZM3.61 13.002l2.37-6.517c.394.302.88.49 1.41.513l-2.37 6.517a2.488 2.488 0 0 0-1.41-.513Zm6.505 3.248h-4.23a2.5 2.5 0 0 0 0-1.5h4.23a2.498 2.498 0 0 0 0 1.5Zm2.495-3.248 2.37-6.517c.394.302.88.49 1.41.513l-2.37 6.517a2.488 2.488 0 0 0-1.41-.513Z"/></svg>
